src/img/icons/cao_feliz.svg

<svg width="44" height="44" viewBox="0 0 44 44" fill="none" xmlns="http://www.w3.org/2000/svg">
<path fill-rule="evenodd" clip-rule="evenodd" d="M25.3621 26.7895C25.0909 27.3357 24.4264 27.5593 23.879 27.2888C23.3318 27.0182 23.1077 26.3554 23.3788 25.8092C23.9147 24.7296 25.0832 24.0566 26.3085 23.9896C27.5409 23.9225 28.7951 24.453 29.4732 25.6602C29.7718 26.1918 29.5818 26.8653 29.049 27.1633C28.5163 27.4612 27.8412 27.2716 27.5426 26.7401C27.3076 26.3219 26.8561 26.1714 26.4294 26.1949C25.9953 26.2185 25.5519 26.4072 25.3621 26.7895Z" fill="#272727"/>
<path fill-rule="evenodd" clip-rule="evenodd" d="M16.1861 26.8889C15.915 27.4349 15.2507 27.6586 14.7033 27.388C14.156 27.1175 13.9319 26.4546 14.203 25.9084C14.7389 24.8291 15.9074 24.1558 17.1327 24.0889C18.3651 24.0218 19.6193 24.5523 20.2974 25.7594C20.596 26.2911 20.406 26.9645 19.8732 27.2625C19.3404 27.5606 18.6654 27.3708 18.3668 26.8394C18.1319 26.4212 17.6803 26.2709 17.2534 26.2941C16.8193 26.3177 16.376 26.5064 16.1861 26.8889Z" fill="#272727"/>
<path fill-rule="evenodd" clip-rule="evenodd" d="M22.0646 32.0867C22.2505 32.0889 22.465 32.2064 22.5815 32.2852C23.6305 32.9951 24.8847 33.0965 26.2925 32.554C27.5514 32.0689 26.8636 30.2467 26.1265 30.5619C24.8091 31.1253 24.2241 30.6277 22.7526 29.7886C22.5366 29.6655 22.2162 29.6538 22.0826 29.6534C22.0809 29.6534 22.079 29.6534 22.0772 29.6534C21.9438 29.6538 21.6232 29.6655 21.4072 29.7886C19.9359 30.6277 19.3807 31.0499 18.0335 30.5619C17.0992 30.2237 16.5722 32.0689 17.8313 32.554C19.239 33.0965 20.4933 32.9951 21.5423 32.2852C21.6586 32.2064 21.8731 32.0889 22.0592 32.0867C22.0609 32.0867 22.0628 32.0867 22.0646 32.0867Z" fill="#272727"/>
<path fill-rule="evenodd" clip-rule="evenodd" d="M29.5198 37.2589C28.6548 36.9004 28.2442 35.9086 28.6035 35.0453C28.9627 34.1821 29.9567 33.7724 30.8219 34.1308C32.0634 34.6455 33.0426 34.753 33.7785 34.3691C34.9419 33.7622 35.3038 32.1894 35.2974 30.3738C35.2771 24.6938 30.7971 16.4038 22.0951 16.4038C12.2744 16.4038 8.03823 24.6541 8.35958 30.259C8.46266 32.0568 8.95985 33.6024 10.1668 34.1494C10.9249 34.4929 11.8898 34.3454 13.0708 33.7724C13.9132 33.3636 14.9296 33.7143 15.3392 34.5549C15.7489 35.3955 15.3974 36.4096 14.555 36.8184C12.2134 37.9544 10.2663 37.9144 8.76298 37.2332C6.57735 36.2425 5.15739 33.7083 4.97076 30.4524C4.56812 23.4316 9.79318 13.0167 22.0951 13.0167C32.9632 13.0167 38.6663 23.2679 38.6917 30.3617C38.7036 33.6593 37.4642 36.2682 35.3514 37.3704C33.9041 38.1255 31.961 38.2706 29.5198 37.2589Z" fill="#272727"/>
<path fill-rule="evenodd" clip-rule="evenodd" d="M21.4867 3.01484C22.733 1.86836 24.544 2.03606 25.5243 2.87172C26.6322 3.8159 26.7923 5.70009 25.689 7.58732C25.1223 8.61506 23.8469 9.66228 22.5916 10.4554C21.9171 10.8819 21.0564 10.8819 20.3819 10.4554C19.1268 9.66247 17.8518 8.61544 17.2856 7.58977C16.1812 5.70085 16.3409 3.81609 17.4491 2.87172C18.4295 2.03606 20.2404 1.86836 21.4867 3.01484ZM20.845 4.56799C20.2349 3.52795 19.025 3.47993 18.4149 4.00004C18.1288 4.24375 18.0091 4.61866 18.0091 5.04518C18.0091 5.59497 18.205 6.21964 18.5737 6.84789C18.5773 6.85413 18.5809 6.86056 18.5845 6.86699C19.0499 7.71682 20.1392 8.54605 21.1775 9.20191C21.3662 9.32121 21.6069 9.32121 21.7956 9.20191L21.7958 9.20172C22.8341 8.54586 23.9234 7.71682 24.3888 6.86699C24.3924 6.86056 24.396 6.85413 24.3998 6.84789C24.7683 6.21964 24.9644 5.59497 24.9644 5.04518C24.9644 4.61866 24.8445 4.24375 24.5586 4.00004C23.9483 3.47993 22.7386 3.52795 22.1283 4.56799C21.9949 4.79543 21.7507 4.93515 21.4867 4.93515C21.2226 4.93515 20.9784 4.79543 20.845 4.56799Z" fill="#272727"/>
</svg>

<svg xmlns="http://www.w3.org/2000/svg" width="44" height="44" fill="none" viewBox="0 0 44 44"><path fill="#272727" fill-rule="evenodd" d="M25.362 26.79c-.271.546-.936.77-1.483.499a1.104 1.104 0 0 1-.5-1.48c.536-1.08 1.704-1.752 2.93-1.82 1.232-.067 2.486.464 3.164 1.671a1.103 1.103 0 0 1-.424 1.503 1.11 1.11 0 0 1-1.506-.423c-.235-.418-.687-.569-1.114-.545-.434.023-.877.212-1.067.595" clip-rule="evenodd"/><path fill="#272727" fill-rule="evenodd" d="M16.186 26.889c-.271.546-.935.77-1.483.499a1.104 1.104 0 0 1-.5-1.48c.536-1.079 1.704-1.752 2.93-1.82 1.232-.066 2.486.464 3.164 1.671a1.103 1.103 0 0 1-.424 1.503 1.11 1.11 0 0 1-1.506-.423c-.235-.418-.687-.568-1.114-.545-.434.024-.877.212-1.067.595" clip-rule="evenodd"/><path fill="#272727" fill-rule="evenodd" d="M22.065 32.087c.185.002.4.12.516.198 1.05.71 2.304.812 3.712.269 1.258-.485.57-2.307-.166-1.992-1.318.563-1.903.066-3.374-.773-.216-.123-.537-.135-.67-.136h-.006c-.133 0-.454.013-.67.136-1.471.839-2.026 1.26-3.373.773-.935-.338-1.462 1.507-.203 1.992 1.408.542 2.662.441 3.711-.269.117-.079.331-.196.517-.198z" clip-rule="evenodd"/><path fill="#272727" fill-rule="evenodd" d="M29.52 37.259a1.693 1.693 0 1 1 1.302-3.128c1.241.514 2.22.622 2.957.238 1.163-.607 1.525-2.18 1.518-3.995-.02-5.68-4.5-13.97-13.202-13.97-9.82 0-14.057 8.25-13.735 13.855.103 1.798.6 3.343 1.807 3.89.758.344 1.723.196 2.904-.377a1.7 1.7 0 0 1 2.268.783c.41.84.058 1.855-.784 2.263-2.342 1.136-4.289 1.096-5.792.415-2.186-.99-3.606-3.525-3.792-6.78-.403-7.021 4.822-17.436 17.124-17.436 10.868 0 16.571 10.25 16.597 17.345.012 3.297-1.228 5.906-3.34 7.008-1.448.756-3.391.9-5.832-.111" clip-rule="evenodd"/><path fill="#272727" fill-rule="evenodd" d="M21.487 3.015c1.246-1.147 3.057-.979 4.037-.143 1.108.944 1.268 2.828.165 4.715-.567 1.028-1.842 2.075-3.097 2.868a2.07 2.07 0 0 1-2.21 0c-1.255-.793-2.53-1.84-3.096-2.865-1.105-1.89-.945-3.774.163-4.718.98-.836 2.791-1.004 4.038.143m-.642 1.553c-.61-1.04-1.82-1.088-2.43-.568-.286.244-.406.619-.406 1.045 0 .55.196 1.175.565 1.803l.01.019c.466.85 1.555 1.679 2.593 2.335.19.12.43.12.619 0 1.038-.656 2.127-1.485 2.593-2.335l.01-.02c.37-.627.565-1.252.565-1.802 0-.426-.12-.801-.405-1.045-.61-.52-1.82-.472-2.43.568a.744.744 0 0 1-1.284 0" clip-rule="evenodd"/></svg>
